assets/icons/ic_google.svg

<svg fill="none" height="23" viewBox="0 0 23 23" width="23" xmlns="http://www.w3.org/2000/svg" xmlns:xlink="http://www.w3.org/1999/xlink"><mask id="a" height="23" maskUnits="userSpaceOnUse" width="23" x="0" y="0"><path d="m22.7324 9.40889h-10.9648v4.44291h6.3119c-.588 2.8224-3.049 4.443-6.3119 4.443-3.851 0-6.9537-3.0321-6.9537-6.7955 0-3.76345 3.1027-6.79561 6.9537-6.79561 1.6583 0 3.1556.57467 4.3324 1.51571l3.4232-3.34534c-2.0861-1.77643-4.7603-2.87406-7.7556-2.87406-6.5259 0-11.7676 5.12252-11.7676 11.5 0 6.3775 5.2417 11.5 11.7676 11.5 5.8834 0 11.2324-4.1815 11.2324-11.5 0-.6796-.1073-1.4116-.2676-2.09111z" fill="#fff"/></mask><mask id="b" height="23" maskUnits="userSpaceOnUse" width="23" x="0" y="0"><path d="m22.7324 9.40889h-10.9648v4.44291h6.3119c-.588 2.8224-3.049 4.443-6.3119 4.443-3.851 0-6.9537-3.0321-6.9537-6.7955 0-3.76345 3.1027-6.79561 6.9537-6.79561 1.6583 0 3.1556.57467 4.3324 1.51571l3.4232-3.34534c-2.0861-1.77643-4.7603-2.87406-7.7556-2.87406-6.5259 0-11.7676 5.12252-11.7676 11.5 0 6.3775 5.2417 11.5 11.7676 11.5 5.8834 0 11.2324-4.1815 11.2324-11.5 0-.6796-.1073-1.4116-.2676-2.09111z" fill="#fff"/></mask><mask id="c" height="23" maskUnits="userSpaceOnUse" width="23" x="0" y="0"><path d="m22.7324 9.40889h-10.9648v4.44291h6.3119c-.588 2.8224-3.049 4.443-6.3119 4.443-3.851 0-6.9537-3.0321-6.9537-6.7955 0-3.76345 3.1027-6.79561 6.9537-6.79561 1.6583 0 3.1556.57467 4.3324 1.51571l3.4232-3.34534c-2.0861-1.77643-4.7603-2.87406-7.7556-2.87406-6.5259 0-11.7676 5.12252-11.7676 11.5 0 6.3775 5.2417 11.5 11.7676 11.5 5.8834 0 11.2324-4.1815 11.2324-11.5 0-.6796-.1073-1.4116-.2676-2.09111z" fill="#fff"/></mask><mask id="d" height="23" maskUnits="userSpaceOnUse" width="23" x="0" y="0"><path d="m22.7324 9.40889h-10.9648v4.44291h6.3119c-.588 2.8224-3.049 4.443-6.3119 4.443-3.851 0-6.9537-3.0321-6.9537-6.7955 0-3.76345 3.1027-6.79561 6.9537-6.79561 1.6583 0 3.1556.57467 4.3324 1.51571l3.4232-3.34534c-2.0861-1.77643-4.7603-2.87406-7.7556-2.87406-6.5259 0-11.7676 5.12252-11.7676 11.5 0 6.3775 5.2417 11.5 11.7676 11.5 5.8834 0 11.2324-4.1815 11.2324-11.5 0-.6796-.1073-1.4116-.2676-2.09111z" fill="#fff"/></mask><g mask="url(#a)"><path d="m-1.06934 18.2962v-13.59112l9.09267 6.79552z" fill="#f9bc15"/></g><g mask="url(#b)"><path d="m-1.06934 4.70373 9.09267 6.79557 3.74437-3.18876 12.8371-2.03867v-7.31777h-25.67414z" fill="#ea4535"/></g><g mask="url(#c)"><path d="m-1.06934 18.2948 16.04634-12.02293 4.2259.52297 5.4019-7.84074v25.0904h-25.67414z" fill="#36a852"/></g><g mask="url(#d)"><path d="m24.6045 24.0458-16.58143-12.5452-2.13977-1.56811 18.7212-5.22741z" fill="#557ebf"/></g></svg>

<svg width="23" height="23" viewBox="0 0 23 23" fill="none" xmlns="http://www.w3.org/2000/svg">
    <mask id="mask0_47_6" style="mask-type:luminance" maskUnits="userSpaceOnUse" x="0" y="0"
        width="23" height="23">
        <path
            d="M22.7324 9.40889H11.7676V13.8518H18.0795C17.4915 16.6742 15.0305 18.2948 11.7676 18.2948C7.9166 18.2948 4.8139 15.2627 4.8139 11.4993C4.8139 7.73585 7.9166 4.70369 11.7676 4.70369C13.4259 4.70369 14.9232 5.27836 16.1 6.2194L19.5232 2.87406C17.4371 1.09763 14.7629 0 11.7676 0C5.2417 0 0 5.12252 0 11.5C0 17.8775 5.2417 23 11.7676 23C17.651 23 23 18.8185 23 11.5C23 10.8204 22.8927 10.0884 22.7324 9.40889Z"
            fill="white" />
    </mask>
    <g mask="url(#mask0_47_6)">
        <path d="M-1.06934 18.2962V4.70508L8.02333 11.5006L-1.06934 18.2962Z" fill="#F9BC15" />
    </g>
    <mask id="mask1_47_6" style="mask-type:luminance" maskUnits="userSpaceOnUse" x="0" y="0"
        width="23" height="23">
        <path
            d="M22.7324 9.40889H11.7676V13.8518H18.0795C17.4915 16.6742 15.0305 18.2948 11.7676 18.2948C7.9166 18.2948 4.8139 15.2627 4.8139 11.4993C4.8139 7.73585 7.9166 4.70369 11.7676 4.70369C13.4259 4.70369 14.9232 5.27836 16.1 6.2194L19.5232 2.87406C17.4371 1.09763 14.7629 0 11.7676 0C5.2417 0 0 5.12252 0 11.5C0 17.8775 5.2417 23 11.7676 23C17.651 23 23 18.8185 23 11.5C23 10.8204 22.8927 10.0884 22.7324 9.40889Z"
            fill="white" />
    </mask>
    <g mask="url(#mask1_47_6)">
        <path
            d="M-1.06934 4.70373L8.02333 11.4993L11.7677 8.31054L24.6048 6.27187V-1.0459H-1.06934V4.70373Z"
            fill="#EA4535" />
    </g>
    <mask id="mask2_47_6" style="mask-type:luminance" maskUnits="userSpaceOnUse" x="0" y="0"
        width="23" height="23">
        <path
            d="M22.7324 9.40889H11.7676V13.8518H18.0795C17.4915 16.6742 15.0305 18.2948 11.7676 18.2948C7.9166 18.2948 4.8139 15.2627 4.8139 11.4993C4.8139 7.73585 7.9166 4.70369 11.7676 4.70369C13.4259 4.70369 14.9232 5.27836 16.1 6.2194L19.5232 2.87406C17.4371 1.09763 14.7629 0 11.7676 0C5.2417 0 0 5.12252 0 11.5C0 17.8775 5.2417 23 11.7676 23C17.651 23 23 18.8185 23 11.5C23 10.8204 22.8927 10.0884 22.7324 9.40889Z"
            fill="white" />
    </mask>
    <g mask="url(#mask2_47_6)">
        <path
            d="M-1.06934 18.2948L14.977 6.27187L19.2029 6.79484L24.6048 -1.0459V24.0445H-1.06934V18.2948Z"
            fill="#36A852" />
    </g>
    <mask id="mask3_47_6" style="mask-type:luminance" maskUnits="userSpaceOnUse" x="0" y="0"
        width="23" height="23">
        <path
            d="M22.7324 9.40889H11.7676V13.8518H18.0795C17.4915 16.6742 15.0305 18.2948 11.7676 18.2948C7.9166 18.2948 4.8139 15.2627 4.8139 11.4993C4.8139 7.73585 7.9166 4.70369 11.7676 4.70369C13.4259 4.70369 14.9232 5.27836 16.1 6.2194L19.5232 2.87406C17.4371 1.09763 14.7629 0 11.7676 0C5.2417 0 0 5.12252 0 11.5C0 17.8775 5.2417 23 11.7676 23C17.651 23 23 18.8185 23 11.5C23 10.8204 22.8927 10.0884 22.7324 9.40889Z"
            fill="white" />
    </mask>
    <g mask="url(#mask3_47_6)">
        <path d="M24.6045 24.0458L8.02307 11.5006L5.8833 9.93249L24.6045 4.70508V24.0458Z"
            fill="#557EBF" />
    </g>
</svg>
